src/lib/packages/icons/src/assets/filled/bolt-square.svg

<svg xmlns="http://www.w3.org/2000/svg" width="24" height="24" fill="none"><path fill="currentColor" d="M17.625 3H6.375C4.125 3 3 4.125 3 6.375v11.25C3 19.875 4.125 21 6.375 21h11.25C19.875 21 21 19.875 21 17.625V6.375C21 4.125 19.875 3 17.625 3Zm-2.138 8.21L9.198 17.5l1.763-5.136a.275.275 0 0 0-.26-.364H8.946a.611.611 0 0 1-.58-.804L9.96 7.127c.125-.374.424-.627.819-.627h2.737c.439 0 .735.45.561.853l-1.049 2.429a.275.275 0 0 0 .253.384h1.774a.612.612 0 0 1 .432 1.044Z"/></svg>

<svg width="24" height="24" viewBox="0 0 24 24" fill="none" xmlns="http://www.w3.org/2000/svg">
<path d="M17.625 3H6.375C4.125 3 3 4.125 3 6.375V17.625C3 19.875 4.125 21 6.375 21H17.625C19.875 21 21 19.875 21 17.625V6.375C21 4.125 19.875 3 17.625 3ZM15.487 11.21L9.198 17.5L10.961 12.364C11.022 12.186 10.89 12 10.701 12H8.94598C8.52898 12 8.23403 11.591 8.36603 11.196L9.96002 7.127C10.085 6.753 10.384 6.5 10.779 6.5H13.516C13.955 6.5 14.251 6.95 14.077 7.353L13.028 9.782C12.95 9.964 13.083 10.166 13.281 10.166H15.055C15.599 10.167 15.871 10.825 15.487 11.21Z" fill="currentColor"/>
</svg>
